X:5929
T:Gan Ainm
R:Reel
S:Dermot Byrnes/Brid Harper
H:
N:
D:
Z:Adrian Scahill
M:4/4
L:1/8
K:G
DE=FD GFDC|B,G,B,C DE=FD|G3B dBcA|GFDE =FDCE|\
DE=FD GFDC|B,G,B,C DE=FD|G3B AGFA|1 DGGF G4:|2 DGGF G2Bd||\
gBdg GBdg|bgag e^def|gBBA BdBA|GBdB A2Bd|\
gBdg GBdg|bgag e^def|gdd2 ^cdBG|FGAF G4:||
